X:1
T:Maple Leaf Rag
T:Scott Joplin Arranged for player piano by J. Lawrence Cook https://musescore.com/user/32597310/scores/5879968 Transcribed from: https://www.youtube.com/watch?v=lIJ0zR7g0aI 
T:Maple Leaf Rag
C:Scott Joplin, J. Lawrence Cook
%%score { ( 1 3 ) | ( 2 4 ) }
L:1/8
Q:1/2=100
M:4/4
K:G
V:1 treble nm="Piano" snm="Pno."
V:3 treble 
V:2 treble 
V:4 treble 
V:1
"^Swing 8ths." d'2 _d'{/b}c'- c' _bge | g2 e2 B [_G_Bd]2 ^d | %2
 [=FAeg] [^F^Ad]2 [_E=Ad=f]- [EAdf] [D_Ace]2 z | EGA[_D=FG_B]- [DFGB] [CE^F=B]2 z || %4
 z b [dd']g b [B^ed']2 b | [cd']fa[cfd']- [cfd']4 | z b [dd']g b [B^ed']2 b | %7
 [cd']fa[cfd']- [cfd'] [cfd']2 z | z g _b_e' [ad']d[fd'] z | z _E (3G_B_e [Ad]D z2 | z8 | %11
 (3G,DG (3_Bdg (3Gdg (3a_bd' | [^c'g']2 [c'g']2 [c'g']2 [^ac'g'][bd'g']- | %13
 [bd'g']d'e'b d'[ebe'] z [_eg]- | [eg]a_bg a [d=b]2 g | [^ceb]g [=cfa]2 [Bdg]2 z [^cg]- | %16
 [cg]G[^cg]G [cg]G[^Ag][Bg]- | [Bg]deB d [EBe]2 [^CG]- | [CG]A_BG A [D=B]2 G | %19
 [^CB]G [=CFA]2 [B,DEG]2 z2 || z f [dd']f a[_d_d']eg | [cc']fa[Bb]- [Bb]dfa | z B [Gg]B d[Ee]Bd | %23
 [Gg]Bd[Ee]- [Ee]d [Ge]2 | z d [Fcf]A d [ce]2 d | [cf]Ad[ce]- [ce]d [^Ae]2 | %26
 z d [Gg]B d [F^Ae]2 d | [Gg]Bd[Ee]- [Ee]d [Ge]2 | z f [dd']f a[_d_d']eg | %29
 [cc']fa[Bb]- [Bb]f[ea]d | z d [Gg]B d [^Ae]2 d | [Bdg] z [=FBg]2 [_F_B_g]2 [_EA=f][D^G-e-] | %32
 [Ge]e^gb [ee']bge | z e ac' [eae']2 [ceac']2 | [^cegb]2 [c^egb]2 [=c=efb] [F^Ad]2 [GBdeg]- | %35
 [GBdeg]2 z2 z4 || z!8va(! f'[d'd'']f' a'[_d'_d'']e'g' | [c'c'']f'a'[bb']- [bb']d'[aa']d' | %38
 z d'[gg']b d' [f^ae']2 d' | [gg']bd'[^ebe']- [ebe']d' [ebe']2 | z d'[fc'f']a d' [ga^c'e']2 d' | %41
 [fc'f']ad'[eae']- [eae']d' [ee']2 | z d'[gg']b d' [f^ae']2 d' | [gg']bd'[gbe']- [gbe']d' [ge']2 | %44
 z f'[d'd'']f' a'[_d'_d'']e'g' | [c'c'']f'a'[bb']- [bb']d'[aa']d' | z d'[gg']b d' [f^ae']2 d' | %47
 [gbg']2 [gbd'g']2 [_g_b_d'_g']2 [=fac'=f'][e^g=be']- | [egbe']e'^g'b' [d'g'e'']b'g'e' | %49
 z e'a'c'' [a'e'']2 [c'e'a'c'']2 | [^c'e'g'b']2 [c'^e'g'b']2 [=c'=e'f'b'] [f^ad']2 [gbd'e'g']- | %51
 [gbd'e'g']!8va)!e_BG AG[DFB][EA]- || [EA]!8va(!e''[b'd'']e' ^e' [d'^g'd'']2 e'' | %53
 d''e'g'[c'f'b'd'']- [c'f'b'd''] [c'f'a'd'']2 z | z e''[b'd'']e' ^e' [d'^g'd'']2 e'' | %55
 d''e'g'[c'f'b'd'']- [c'f'b'd''] [c'f'a'd'']2 z | z [_b'_e'']g'a' [f'=b'd''] d'2 [_b'e''] | %57
 g'a'_b'[f'=b'd'']- [f'b'd''] [c'f'a'd'']2!8va)! z | z DEG A_Bde |!8va(! ga_bd' e'g' (3a'_b'd'' | %60
 [^c''g'']g' [c''g'']2 [^a'g''] [a'g'']2 [b'g'']- | [b'g'']d''e''b' d'' [e'b'e'']2 [^c'g']- | %62
 [c'g']a'_b'g' a'[d'=b']g'a' | [_d'b']g' [c'f'a']2 [b=d'g']2!8va)! z [^c'g']- | %64
 [c'g']g[^c'g']g [c'g'] [^ag']2 g | [bg']d'e'b d' [ebe']2 [^cg]- | [cg]a_bg a[d=b]ga | %67
 [_db]g [cfa]2 [B=dg]2 z2 ||[K:C] [GBdg]2 z [Acg]- [Acg]d G2 | dcA[Bdg]- [Bdg]dG z | GcAc eGce | %71
 Gce[Gdg]- [Gdg]c[Ae]^A | [Bg]G z [cg]- [cg]dAG | [Bg]G z [cg]- [cg]dAd | GcAc eGce | %75
 Gce[Gcg]- [Gcg]e_Ae | [^ca]A z [da]- [da]eB z | [^ca]dB[ca]- [ca]eA z | z d[Aa]d f [Bb]2 d | %79
 [Aa]df[Bb]- [Bb]d[Aa] z | [^d^fc']2 [dfc'][dfb]- [dfb] [ca]2 [df] | [eg]cd[Af]- [Af]^c[Ge] z | %82
 [^Fe]cd[=FAe]- [FAe]c [FBd]2 | [EGc]2!8va(! [c'e'c''][be'b']- [be'b'][c'a']^d'^f' | %84
 [bg']g z [c'g']- [c'g']d'ag | [c'g']c'a[bg']- [bg']d'a z | [c'c'']g'[aa']^d' e'g'[aa']g' | %87
 [c'c'']g'a'[g_e'] d'c' [c^fa]2 | [fbg']2 z [fbg']- [fbg']d'a z | [fbg']2 z [fbg']- [fbg']d'ad' | %90
 g[c'g']a[c'g'] e'ac'e' | ac'e'[gg']- [gg']e'_ae' | [^c'a']a z [c'a']- [c'a']e'b z | %93
 [^c'a']a z [c'a']- [c'a']e'be' | ad'[aa']d' f'[bb']-[bb']d' | [aa']d'f'[bb']- [bb']f'[aa'] z | %96
 [^f'c'']c'[f'c'']a' [^d'b'] [c'a']2 [d'f'] | [e'g']c'd'[af']- [af']^c'[ge'] z | %98
 [^fe']c'd'[=fae']- [fae']c' [fbd']2 | [egc']4!8va)! z ^de^f ||[K:G] [cg] z [Ge] z [Ag] z [Ge] z | %101
 [Ag] [Ga]2 [_Be_b]- [Beb]age | d e2 B- B4- | [EB]deB d [=Fe]2 B | %104
 [Fd]e z [CA]- [CA]2 [G,_D=F][F,CE]- | [F,CE]d[ce]B d [F^Ae]2 [GB]- | [GB]deB d [F^Ae]2 [GB]- | %107
 [GB]deB d [=FBe]2 d | [cg] z [Ge] z [Ag] z [Ge] z | [Ag] [Ga]2 [_Be_b]- [Beb]age | %110
 [Bg]GeB d [Fce]2 [GB]- | [GB]deB d [=FBe]2 [EG]- | [EG]A G2 G z AG- | GABG A B2 G- | GABG BG A2 | %115
 [B,DG]2 z2 z4 | z [cec']2 g [^da]B z g | [ec']cg[ea]- [ea]2 [^Ae^a][B=a]- | [Ba]ge^A BdcA | %119
 BG z [Gg]- [Gg]2 z2 | z [cec']2 g [^da]B z g | [ec']cg[ea]- [ea]g[^Ae^a][B=a]- | [Ba]ged BGE_E | %123
 D [CF_B]2 [B,EA]- [B,EA]4 |] %124
V:2
 [DB=f]2 [_D_B_f]2 [CA_e]2 [B,Gd]2 | [A,Gc]6[K:bass] D,,2 | %2
 [G,,B,]2 [_G,,_B,]2 [=F,,A,]2 [E,,^G,]2 | [A,,G,C]4 [_E,,G,]2 [D,,F,]2 || %4
 [G,,B,]2 .[DGB]2 [^G,,^E,B,]2 .[D^E^G]2 | [A,,F,C]2 .[CDF]2 D,,2 [C,_E]2 | %6
 [B,,D]2 [A,,C]2 [G,,D,B,]2 [^G,,^E,B,]2 | [A,,F,C]2 .[CDF]2 D,,2 .[CDF]2 | %8
 [_EG_B_d]4 [DFAc]2[K:bass] D,2 | [_E,G,_B,_D]4 [D,F,A,C]2 D,,2 | %10
 (3G,,,D,,G,, (3_B,,D,G, (3G,,D,G, (3_B,DG | z8 | [EG^A^c]4 [_EGAc]4 | %13
 [DGBd]4[K:bass] E,,2 .[B,EG]2 | _E,,2 .[_B,_D_EG]2 D,,2 .[=B,=DG]2 | %15
 [A,G]2 [D,A,F]2 [G,D]2 G,,[E,G,^A,^C]- | [E,G,A,C]4 [_E,G,^A,^C]4 | %17
 [D,G,B,D]4!8vb(! E,,,2!8vb)! .[E,G,B,]2 | %18
!8vb(! _E,,,2!8vb)! .[_E,G,_B,_D]2!8vb(! D,,,2!8vb)! .[D,G,=B,]2 | %19
 [A,,G,]2 [D,,F,]2 [G,,D,]2 [^G,,B,]2 || [A,,C]2 [G,,_B,]2 [F,,A,]2 [E,,G,]2 | %21
 [D,,F,]2 .[CDF]2 C,,2 .[F,CD]2 | B,,,2 .[D,G,B,]2!8vb(! D,,,2!8vb)! .[D,F,C]2 | %23
 [G,,B,]2 [A,,C]2 [B,,D]2 [_B,,G,_D]2 | [A,,F,C]2 .[CDF]2 [F,,A,]2 [E,,G,]2 | %25
 [D,,F,]2 [E,,G,]2 [F,,A,]2 [F,,^C,^A,]2 | [G,,D,B,]2 .[G,B,D]2 D,,2 .[F,CD]2 | %27
 [G,,B,]2 [A,,C]2 [B,,D]2 [_B,,G,_D]2 | [A,,F,C]2 .[CDF]2 [F,,A,]2 [E,,G,]2 | %29
 [D,,F,]2 .[CDF]2 [D,F]2 [C,E]2 | [B,,D]2 .[B,DG]2 D,,2 .[F,CD]2 | %31
 [G,,D,B,] z [D,B,]2 [_D,_B,]2 [C,A,]2 | [B,,^G,]2 .[B,DE^G]2 [F,,A,]2 [^G,,B,]2 | %33
 [A,,E,C]2 .[A,CE]2!8vb(! A,,,2!8vb)! .[A,CE]2 | [A,,G,]2 [_E,,G,]2 [D,,F,]2 [_A,,_E,C]2 | %35
 [G,,D,B,]2 [A,,F,C]2 [B,,G,D]2[K:treble] [_B,G_d]2 || [A,Fc]2 [G,E_B]2 [F,DA]2 [E,^CG]2 | %37
 [D,CF]2 [C,A,_E]2 [B,,G,D]2 [A,,F,C]2 | [G,,D,B,]2 .[B,DG]2 D,,2 .[F,CD]2 | %39
 [B,,G,D]2 .[B,DG]2 ^G,,2 .[^G,B,D^E]2 | A,,2 .[F,CD]2 G,,2 .[G,A,^CE]2 | %41
 F,,2 .[F,CD]2 C,,2 .[F,CD]2 | B,,,2 .[B,DG]2!8vb(! D,,,2!8vb)! .[F,CD]2 | %43
 [G,,D,B,]2 [A,,F,C]2 [B,,G,D]2[K:treble] [_B,G_d]2 | [A,Fc]2 [G,E_B]2 [F,DA]2 [E,^CG]2 | %45
[K:bass] [D,CF]2 [C,A,_E]2 [B,,G,D]2 [A,,F,C]2 | [G,,D,B,]2 .[B,DG]2 D,,2 .[F,CD]2 | %47
 [G,,D,B,]2 [D,B,=F]2 [_D,_B,_F]2 [C,A,_E]2 | [B,,^G,D]2 .[B,DE^G]2 E,,2 .[B,DEG]2 | %49
 [A,,E,C]2 .[A,CE]2!8vb(! A,,,2!8vb)! .[A,CE]2 | [A,,G,^C]2 [_E,_DG]2 [D,=CF]2 [_A,,E,C]2 | %51
 [G,,D,B,]E_B,G, A,G,[D,C][G,,D,=B,]- || [G,,D,B,]2 .[B,DG]2 ^G,,2 .[^G,B,D^E]2 | %53
 A,,2 .[G,A,CE]2 D,,2 .[F,CD]2 |!8vb(! G,,,2!8vb)! .[B,DG]2!8vb(! ^G,,,2!8vb)! .[^G,B,D^E]2 | %55
!8vb(! A,,,2!8vb)! .[G,A,CE]2!8vb(! D,,,2!8vb)! .[F,CD]2 | _E,,2 .[G,_B,_D_E]2 D,,2 .[F,A,C=D]2 | %57
 _E,,2 D,,2 .[F,CD]2 D,,2 | [G,,D,E,_B,]8 | [G,DE_B]8 | [EG^A^c]4 [_EGAc] [EGAc]2 [DGBd]- | %61
 [DGBd]4[K:bass] E,,2 .[B,EG]2 | _E,,2 .[G,_B,_D_E]2 D,,2 .[=B,=DG]2 | %63
 [A,,G,^C]2 [D,F,=C]2 [G,,D,B,]2[K:treble] [=F_ABd][EG^A^c]- | [EGAc]4 [_EG^A^c] [EGAc]3 | %65
 [DGBd]4[K:bass] E,,2 .[B,EG]2 | _E,,2 .[G,_B,_D_E]2 D,,2 .[=B,=DG]2 | %67
 [A,,G,^C]2 [D,F,=C]2 [G,,D,B,]2 [^C,,E,]2 || %68
[K:C] [D,,F,]2 .[G,B,DF]2!8vb(! G,,,2!8vb)! .[A,B,DF]D,,- | %69
 [D,,F,]2 .[G,B,DF]2!8vb(! G,,,2!8vb)! .[A,B,DF]2 | [C,,E,]2 .[G,CE]2!8vb(! G,,,2!8vb)! .[G,CE]2 | %71
 [C,,E,]2 [D,,F,]2 [E,,G,]2 [^C,,E,]2 | [D,,F,]2 .[G,B,DF]2!8vb(! G,,,2!8vb)! .[A,B,DF]D,,- | %73
 [D,,F,]2 .[G,B,DF]2!8vb(! G,,,2!8vb)! .[A,B,DF]2 | [C,,E,]2 .[G,CE]2!8vb(! G,,,2!8vb)! .[G,CE]2 | %75
 [C,,E,]2 [D,,F,]2 [E,,G,]2 [F,,_A,]2 | [E,,G,]2 .[A,^CEG]2!8vb(! A,,,2!8vb)! .[A,DEG]2 | %77
 [E,,G,]2 .[A,^CEG]2!8vb(! A,,,2!8vb)! .[A,CEG]2 | [D,,F,]2 .[A,DF]2 [F,,A,]2 [E,,G,]2 | %79
 [D,,F,]2 .[A,DF]2!8vb(! D,,,2!8vb)! .[A,DF]2 | ^D,,2 .[A,C^D^F]2 ^F,,2 .[A,CDF]2 | %81
 G,,2 .[G,CE]2!8vb(! A,,,2!8vb)! .[G,A,^CE]2 | D,,2 .[^F,A,CD]2!8vb(! G,,,2!8vb)! .[G,B,D]2 | %83
 [C,,E,]2 .[G,CE]2 [E,,G,]2 [_E,,_G,]2 | [D,,F,]2 .[G,B,DF]2!8vb(! G,,,2!8vb)! .[A,B,DF]D,,- | %85
 [D,,F,]2 .[A,CDF]2!8vb(! G,,,2!8vb)! .[A,B,DF]2 | [C,E]2 [D,F]2 [E,G]2 [D,F]2 | %87
 [C,E]2 [D,F]2 [E,G]2 [_E,_G]2 | [D,F]2 [C,_E]2 [B,,D]2 [A,,C]2 | %89
 [G,,B,]2 [F,,A,]2 [E,,G,]2 [D,,F,]2 | [C,,E,]2 .[G,CE]2 [E,G]2 [D,F]2 | %91
 [C,E]2 [D,F]2 [E,G]2 [F,_A]2 | [E,G]2 [D,F]2 [^C,E]2 [B,,_A,D]2 | %93
 [A,,G,^C]2 [G,,B,]2 [^F,,A,]2 [E,,G,]2 | [D,,F,]2 .[A,DF]2 [F,A]2 [E,G]2 | %95
 [D,F]2 .[A,DF]2 D,,2 .[A,DF]2 | ^D,,2 .[A,C^D^F]2 ^F,,2 .[A,CDF]2 | %97
 G,,2 .[G,CE]2!8vb(! A,,,2!8vb)! .[G,A,^CE]2 | D,,2 .[^F,A,CD]2!8vb(! G,,,2!8vb)! .[G,B,DF]2 | %99
 C,,^F,,G,,C,- C,2 z2 ||[K:G] C,,2 .[G,CE]2!8vb(! G,,,2!8vb)! .[G,CE]2 | %101
 C,,2 .[G,CE]2 ^C,,2 .[G,^A,^CE]2 | D,,2 .[G,B,D]2 [B,,D]2 [A,,C]2 | %103
 [G,,B,]2 .[G,B,D]2!8vb(! ^G,,,2!8vb)! .[=F,^G,B,D]2 | %104
!8vb(! A,,,2!8vb)! .[F,CD]2!8vb(! D,,,2 _B,,,A,,,- | %105
 A,,,2!8vb)! .[F,CD]2!8vb(! D,,,2!8vb)! .[F,CD]2 | [G,,B,]2 [A,,C]2 [B,,D]2 [D,C]2 | %107
 [G,,B,]2 [=F,,A,]2 [E,,G,]2 [D,,=F,]2 | [C,,E,]2 .[G,CE]2!8vb(! G,,,2!8vb)! .[G,CE]2 | %109
 C,,2 .[G,CE]2 ^C,,2 .[G,^A,^CE]2 | D,,2 .[G,B,D]2!8vb(! D,,,2!8vb)! .[F,CD]2 | %111
 [G,,B,]2 [A,,C]2 [B,,D]2 [G,,=F,]2 | C,,2 C,,2 ^C,,2 C,,2 | D,,2 D,,2 D,,2 [^D,,^D,]2 | %114
 E,,2 E,,2 A,,,2 D,,2 | G,,,2 [G,,G,]2 [F,,F,]2 [=F,,=F,]2 | %116
 [E,,E,]2 .[G,CE]2!8vb(! G,,,2!8vb)! .[G,B,^D=F]2 | C,,2 .[G,CE]2 ^C,,2 .[G,^A,^CE]2 | %118
 D,,2 .[G,B,D]2!8vb(! D,,,2!8vb)! .[F,CD]2 | [G,,B,]2 [A,,F,C]2 [B,,G,D]2 [G,,=F,]2 | %120
 [C,,E,]2 .[G,CE]2!8vb(! G,,,2!8vb)! .[G,B,^D=F]2 | C,,2 .[G,CE]2 ^C,,2 .[G,^A,^CE]2 | %122
 D,,2 C,,2 B,,,2 _B,,,2 | A,,, _A,,,2 G,,,- G,,,4 |] %124
V:3
 x8 | x8 | x8 | x8 || x8 | x8 | x8 | x8 | x8 | x8 | x8 | x8 | x8 | x8 | x8 | x8 | x8 | x8 | x8 | %19
 x8 || x8 | x8 | x8 | x8 | x8 | x8 | x8 | x8 | x8 | x8 | x8 | x8 | x8 | x8 | x8 | x8 || %36
 x!8va(! x7 | x8 | x8 | x8 | x8 | x8 | x8 | x8 | x8 | x8 | x8 | x8 | x8 | x8 | x8 | x!8va)! x7 || %52
 x!8va(! x7 | x8 | x8 | x8 | x8 | x7!8va)! x | x8 |!8va(! x8 | x8 | x8 | x8 | x6!8va)! x2 | x8 | %65
 x8 | x8 | x8 ||[K:C] x8 | [cg]2 x6 | z g3- g4 | x8 | x8 | x8 | g8 | x8 | x8 | x8 | x8 | x8 | x8 | %81
 x8 | x8 | x2!8va(! x6 | x8 | x8 | x8 | x8 | x8 | x8 | x8 | x8 | x8 | x8 | x8 | x8 | x8 | x8 | x8 | %99
 x4!8va)! x4 ||[K:G] x8 | x8 | z2 z G F E2 E- | x8 | x8 | x8 | x8 | x8 | x8 | x8 | x8 | x8 | %112
 G,2 A,2 ^A,2 A,B,- | B,4- B, C2 ^C- | C4 [^CE]2 [=CF]2 | x8 | x8 | x8 | x8 | x8 | x8 | x8 | x8 | %123
 x8 |] %124
V:4
 x8 | x6[K:bass] x2 | x8 | x8 || x8 | x8 | x8 | x8 | x6[K:bass] x2 | x8 | x8 | x8 | x8 | %13
 x4[K:bass] x4 | x8 | x8 | x8 | x4!8vb(! x2!8vb)! x2 |!8vb(! x2!8vb)! x2!8vb(! x2!8vb)! x2 | x8 || %20
 x8 | x8 | x4!8vb(! x2!8vb)! x2 | x8 | x8 | x8 | x8 | x8 | x8 | x8 | x8 | x8 | x8 | %33
 x4!8vb(! x2!8vb)! x2 | x8 | x6[K:treble] x2 || x8 | x8 | x8 | x8 | x8 | x8 | %42
 x4!8vb(! x2!8vb)! x2 | x6[K:treble] x2 | x8 |[K:bass] x8 | x8 | x8 | x8 | x4!8vb(! x2!8vb)! x2 | %50
 x8 | x8 || x8 | x8 |!8vb(! x2!8vb)! x2!8vb(! x2!8vb)! x2 |!8vb(! x2!8vb)! x2!8vb(! x2!8vb)! x2 | %56
 x8 | x8 | x8 | x8 | x8 | x4[K:bass] x4 | x8 | x6[K:treble] x2 | x8 | x4[K:bass] x4 | x8 | x8 || %68
[K:C] x4!8vb(! x2!8vb)! x2 | x4!8vb(! x2!8vb)! x2 | x4!8vb(! x2!8vb)! x2 | x8 | %72
 x4!8vb(! x2!8vb)! x2 | x4!8vb(! x2!8vb)! x2 | x4!8vb(! x2!8vb)! x2 | x8 | x4!8vb(! x2!8vb)! x2 | %77
 x4!8vb(! x2!8vb)! x2 | x8 | x4!8vb(! x2!8vb)! x2 | x8 | x4!8vb(! x2!8vb)! x2 | %82
 x4!8vb(! x2!8vb)! x2 | x8 | x4!8vb(! x2!8vb)! x2 | x4!8vb(! x2!8vb)! x2 | x8 | x8 | x8 | x8 | x8 | %91
 x8 | x8 | x8 | x8 | x8 | x8 | x4!8vb(! x2!8vb)! x2 | x4!8vb(! x2!8vb)! x2 | x8 || %100
[K:G] x4!8vb(! x2!8vb)! x2 | x8 | x8 | x4!8vb(! x2!8vb)! x2 |!8vb(! x2!8vb)! x2!8vb(! x4 | %105
 x2!8vb)! x2!8vb(! x2!8vb)! x2 | x8 | x8 | x4!8vb(! x2!8vb)! x2 | x8 | x4!8vb(! x2!8vb)! x2 | x8 | %112
 E,4 E,4 | D,6 x2 | E,4 x4 | z A, z A, z _A, z G, | x4!8vb(! x2!8vb)! x2 | x8 | %118
 x4!8vb(! x2!8vb)! x2 | x8 | x4!8vb(! x2!8vb)! x2 | x8 | x8 | x8 |] %124

